X:1
T:Title
%%score { ( 1 3 ) | 2 }
L:1/8
M:4/4
K:Eb
V:1 treble nm="Grand Piano"
V:3 treble 
V:2 bass 
V:1
 z4 z2[Q:1/4=100] EF | GGGG B2 G2 | [EG]2 [DF]4 [DF][EG] | [FA][FA][FA][FA] [FB]2 [FA]2 | %4
[M:3/4] [EG]6 |[M:1/4] [EG][FA] |[M:4/4] [GB][GB][GB][GB] [Ge]2 [EGB]2 | [EBd]2 [EAc]4 [EAc][EAc] | %8
 [EGB][EAc][EB][CEA] [B,EG]2 [A,B,F]2 |[M:3/4] [G,B,E]6 |[M:1/4] [B,EG][B,GB] | %11
[M:4/4] [B,FA][DF]-[B,D-F-][B,D-F-] [B,DF]2 [FA][Ac] | [B,GB][EG]-[B,E-G-][B,EG-] [EG]2 [GB][GB] | %13
 =AAcc [Ae]2 A2 |[M:3/4] B6 |[M:1/4] G[GB] |[M:4/4] .[FA]2 B,B, B,2 [FA][Ac] | %17
[M:17/16] z [Ge]/-[Ge]/-[Ge]/-[Ge]/-[Ge]/-[Ge]/-[Ge]/-[Ge]-<[Ge] z/ z/ z |[M:4/4] GAG[CF] E2 D2 | %19
[M:3/4] E6 |] %20
V:2
 z4 z2 [E,G,B,][E,A,B,] | [E,B,E][E,B,E][E,B,E][E,B,E] [E,G,E]2 [E,B,E]2 | %2
 [B,,B,]2 [B,,B,]4 [B,,B,][B,,B,] | [B,,B,][B,,B,][B,,B,][B,,B,] [D,B,]2 [B,,B,]2 | %4
[M:3/4] [E,B,]6 |[M:1/4] [E,B,][E,B,] |[M:4/4] [E,E][E,E][E,E][E,E] [E,B,]2 E,2 | A,2 A,4 A,A, | %8
 E,E,G,,A,, B,,2 B,,2 |[M:3/4] E,6 |[M:1/4] E,E, |[M:4/4] B,,B,,B,,B,, B,,2 [B,,B,][B,,B,] | %12
 E,E,E,E, E,2 [E,E][E,E] | [F,CF][F,CF][F,=A,F][F,A,F] [F,C]2[K:treble] [F,EF]2 |[M:3/4] [B,DF]6 | %15
[M:1/4][K:bass] [E,B,E][E,B,] |[M:4/4] [B,,B,][B,,B,]B,,B,, B,,2 [B,,B,][B,,B,] | %17
[M:17/16] [E,B,][E,B,]E,E,E,/-E,-<E,[E,G,][E,A,E] | %18
[M:4/4] [E,B,E][E,CE][E,B,E][A,,A,] [B,,G,B,]2 [B,,F,B,]2 |[M:3/4] [E,G,B,]6 |] %20
V:3
 x8 | x8 | x8 | x8 |[M:3/4] x6 |[M:1/4] x2 |[M:4/4] x8 | x8 | x8 |[M:3/4] x6 |[M:1/4] x2 | %11
[M:4/4] z B, z2 z4 | z B, z2 z4 | x8 |[M:3/4] x6 |[M:1/4] x2 |[M:4/4] z [DF]3- [DF]2 z2 | %17
[M:17/16] [GB] z B,B,B,/-B,-<B,EF |[M:4/4] x8 |[M:3/4] x6 |] %20

